X:0
T:Dairymaid's Croon
S:Kennedy-Fraser, Songs of the Hebrides
G:milking song from Barra
M:3/4
L:1/4
Q:1/4=240
K:G Mixolydian
B2  d-|d D G|B2 A|A2 G|A2  A-|A G A|B2 A|A G2 |
B d D-|D B2-|B2 A|A2 G|A A A |A G A|B2 A|A2 G||
B d D-|D G2 |B2 A|A2 G|A2  A-|A G A|B2 A|A G2 |
B2  d-|d D G|B2 A|A2 G|AA  A |A G A|B2 A|A G2||
B2  d-|d D G|B2 A|A2 G|A2  A-|A G A|B2 A|A G2 |
Bd  D-|D B2-|B2 A|A2 G|A A A |A G A|B2 A|A2 G|]
